X: 3
T: Johnny Allen's
R: reel
M: 4/4
L: 1/8
K: Dmaj
A3B AGFA|D=ccB ~c2Bc|A3B AGFE|DGGF ~G2FG|
ADBD AGFE|Ddde ~f3g|afge fded|dcAF ~G2FG:|
|:A3g fdec|Ad~d2 Ad~d2|A3g fdec|dcAF G2FG|
A3g fdec|Addc defg|afge fded|dcAF G2FG:|


Tune 278	Setting 278

